X:23
T:Quatre branles
C:Tielman Susato
B:Tielman Susato: "Danserye" (1551) no. 23
R:Branle, bransle
Z:Transcribed by Frank Nordberg - http://www.musicaviva.com
F:http://abc.musicaviva.com/tunes/susato-tielman/susato-1551-23/susato-1551-23-4m.abc
M:4/2
L:1/4
Q:1/4=600
K:C
V:1
E2ED CB,CD|EFGFE2D2|E2ED CB,CD|EFG2D4::EFGA GFED|
V:2
C2CA,A,3A,|C2C2C2B,2|C2CA,A,3A,|C2B,2B,4|C2CA,C3F,|
V:3
G,2G,F, E,D,E,F,|G,2G,2G,2G,2|G,2G,F, E,D,E,F,|G,2G,2G,4::G,2G,F, G,A,G,F,|
V:4
C,2C,D,A,,3F,,|C,2C,2C,2G,,2|C,2C,D,A,,3F,,|C,2G,,2G,,4::C,2C,F,,C,3D,|
%
V:1
E2C2C2F2|F2E2D4::EFG2EFG2|EFG2F2E2|A2AGF2E2|A2AGF2E2|
V:2
G,2A,2A,2C2|C2C2B,4::C2B,2C2B,2|C2B,C DB,C2|A,2F,2C2C2|A,2F,2C2C2|
V:3
E,2E,2E,2A,2|A,2G,2G,4::G,2G,G,A,2G,2|A,2G,2A,F,G,2|C2CB,A,2G,2|C2CB,A,2G,2|
V:4
C,2A,,2A,,2F,,2|F,,2C,2G,,4::C,D,E,2A,,2E,2|A,,2E,2D,2C,2|F,,2F,,G,, A,,B,,C,2|F,,2F,,G,, A,,B,,C,2|
%
V:1
EFGE FEDC|B,A,CB,C2GF|E2DCD2GF|E2D2C2GF|E2DCD2GF|E2D2C4:|
V:2
C2C2C2A,2|G,2G,2G,2C2|C2G,A,B,2B,2|C2B,2C2C2|C2G,A,B,2B,2|G,C2B,C4:|
V:3
G,2G,G, A,G,F,E,|D,C,D,2E,2C,D,|E,F,G,2G,2D,2|E,F,G,2E,2C,D,|E,F,G,2G,2D,2|E,F,G,2E,4:|
V:4
C,2C,2F,,2F,2|G,,2G,,2C,2E,D,|C,2B,,A,,G,,2G,,2|C,2G,,2C,2E,D,|C,2B,,A,,G,,2G,,2|C,2G,,2C,4:|
W:
W:
W:  From Musica Viva - http://www.musicaviva.com
W:  the Internet center for free sheet music downloads.
